assets/images/svg/register.svg

<svg width="81" height="88" viewBox="0 0 81 88" fill="none" xmlns="http://www.w3.org/2000/svg">
<path d="M65.1537 0H15.3418C6.86827 0 0 6.86714 0 15.3326V58.6822C0 67.1544 6.86827 74.0148 15.3418 74.0148H29.8844L26.369 87.7017L40.2004 74.0148H65.1537C73.6273 74.0148 80.4955 67.1544 80.4955 58.6822V15.3326C80.4955 6.86714 73.6273 0 65.1537 0Z" fill="#33BFBF"/>
<path d="M26.369 87.7017L29.8844 74.0148H15.3418C6.86827 74.0148 0 67.1544 0 58.6822V15.3326C0 6.86714 6.86827 0 15.3418 0H65.1537C73.6273 0 80.4955 6.86714 80.4955 15.3326V58.6822C80.4955 67.1544 73.6273 74.0148 65.1537 74.0148H40.2004L26.369 87.7017Z" fill="#E7E7E7"/>
<path d="M64.971 36.8215C64.971 50.4746 53.9032 61.5405 40.2479 61.5405C26.5927 61.5405 15.5249 50.4746 15.5249 36.8215C15.5249 23.1685 26.5927 12.1025 40.2479 12.1025C53.9032 12.1025 64.971 23.1685 64.971 36.8215Z" fill="#33BFBF"/>
<path d="M37.6534 47.8601C36.9828 47.8601 36.3529 47.5688 35.9194 47.0609L26.2198 35.636C25.407 34.6743 25.5222 33.2454 26.4772 32.4327C27.4323 31.62 28.8682 31.7351 29.6811 32.6968L37.6534 42.0833L50.8074 26.5814C51.6202 25.6197 53.0562 25.5046 54.0112 26.3173C54.9663 27.13 55.0882 28.5657 54.2754 29.5206L39.3806 47.0609C38.9539 47.5688 38.3172 47.8601 37.6534 47.8601Z" fill="white"/>
</svg>

<svg xmlns="http://www.w3.org/2000/svg" width="81" height="88" fill="none"><path fill="#33BFBF" d="M65.154 0H15.342C6.868 0 0 6.867 0 15.333v43.35c0 8.471 6.868 15.332 15.342 15.332h14.542L26.37 87.702 40.2 74.015h24.954c8.473 0 15.342-6.86 15.342-15.333v-43.35C80.496 6.868 73.627 0 65.154 0Z"/><path fill="#E7E7E7" d="m26.369 87.702 3.515-13.687H15.342C6.868 74.015 0 67.155 0 58.682v-43.35C0 6.868 6.868 0 15.342 0h49.812c8.473 0 15.342 6.867 15.342 15.333v43.35c0 8.471-6.869 15.332-15.342 15.332H40.2L26.37 87.702Z"/><path fill="#33BFBF" d="M64.971 36.822c0 13.653-11.068 24.718-24.723 24.718S15.525 50.476 15.525 36.823c0-13.654 11.068-24.72 24.723-24.72S64.97 23.17 64.97 36.822Z"/><path fill="#fff" d="M37.653 47.86c-.67 0-1.3-.291-1.734-.8l-9.7-11.424a2.273 2.273 0 0 1 .258-3.203 2.269 2.269 0 0 1 3.204.264l7.972 9.386 13.154-15.502a2.274 2.274 0 0 1 3.468 2.94L39.381 47.06c-.427.508-1.064.8-1.728.8Z"/></svg>
